svg/300/outlined/sound_sampler-fill.svg

<svg xmlns="http://www.w3.org/2000/svg" width="48" height="48" viewBox="0 -960 960 960"><path d="M181.386-246.693q-38.692-48.308-60.038-107.731Q100.001-413.846 100.001-480q0-149.153 99.346-256.384 99.346-107.23 243.499-121.615v45.384Q317.154-798.23 231.269-704.269 145.385-610.307 145.385-480q0 56.615 18.115 108.038 18.116 51.423 50.116 93.654l-32.23 31.615ZM480-100.001q-68.769 0-130.115-22.77-61.346-22.769-111.269-64.076l32-32.23q43.461 34.846 96.5 54.269Q420.154-145.385 480-145.385q59.846 0 113.192-19.923t97.577-55.154l31.999 32.615q-49.692 41.307-111.346 64.576-61.653 23.27-131.422 23.27Zm299.614-147.077L747-279.077q32-42.231 49.807-93.269Q814.615-423.385 814.615-480q0-129.307-85.077-223.384T518.539-812.23v-45.384q144.768 14.769 243.114 121.615Q859.999-629.153 859.999-480q0 66.154-21.347 125.384-21.346 59.231-59.038 107.538Zm-384.536-85.385v-309.689l242.998 154.845-242.998 154.844Z"/></svg>

<svg xmlns="http://www.w3.org/2000/svg" width="48" height="48" viewBox="0 -960 960 960"><path d="M181.39-246.69q-38.7-48.31-60.04-107.73Q100-413.85 100-480q0-149.15 99.35-256.38Q298.69-843.61 442.85-858v45.39q-125.7 14.38-211.58 108.34-85.88 93.96-85.88 224.27 0 56.62 18.11 108.04 18.12 51.42 50.12 93.65l-32.23 31.62ZM480-100q-68.77 0-130.11-22.77-61.35-22.77-111.27-64.08l32-32.23q43.46 34.85 96.5 54.27 53.03 19.42 112.88 19.42 59.85 0 113.19-19.92 53.35-19.92 97.58-55.15l32 32.61q-49.69 41.31-111.35 64.58Q549.77-100 480-100Zm299.61-147.08-32.61-32q32-42.23 49.81-93.27 17.8-51.03 17.8-107.65 0-129.31-85.07-223.38-85.08-94.08-211-108.85v-45.38Q663.31-842.84 761.65-736 860-629.15 860-480q0 66.15-21.35 125.38-21.34 59.23-59.04 107.54Zm-384.53-85.38v-309.69l243 154.84-243 154.85Z"/></svg>
